!!!COM: Mozart, Wolfgang Amadeus
!!!CDT: 1756/01/27/-1791/12/05/
!!!CNT: German
!!!OTL: Piano Sonata No. 11 in A major
!!!SCT1: K<sup>1</sup> 331
!!!SCT2: K<sup>6</sup> 300i
!!!OMV: Mvmt. 1f
!!!OMD: Variation V: Adagio
!!!ODT: 1778-1873///
**kern	**kern	**dynam
*staff2	*staff1	*staff1/2
*>[A,A1,A,A2,B,B1,B,B2]	*>[A,A1,A,A2,B,B1,B,B2]	*>[A,A1,A,A2,B,B1,B,B2]
*>norep[A,A2,B,B2]	*>norep[A,A2,B,B2]	*>norep[A,A2,B,B2]
*>A	*>A	*>A
*clefF4	*clefG2	*clefG2
*k[f#c#g#]	*k[f#c#g#]	*k[f#c#g#]
*A:	*A:	*A:
*M6/8	*M6/8	*M6/8
*MM52	*MM52	*MM52
=1-	=1-	=1-
(32ALLL	8cc#L	p
32e	.	.
32c#	.	.
32eJJJ	.	.
32ALLL	(8.cc#	.
32e	.	.
32c#	.	.
32eJJJ	.	.
32ALLL	.	.
32e	.	.
32B	16ddJk)	.
32eJJJ	.	.
32c#LLL	(16ff#LL	.
32e	.	.
32A	16eeJJ)	.
32eJJJ	.	.
32c#LLL	16r	.
32e	.	.
32A	16ee'	.
32eJJJ	.	.
32c#LLL	(32ff#LLL	.
32e	32ee	.
32A	32dd	.
32eJJJ	32cc#JJJ)	.
=2	=2	=2
32G#LLL	(16cc#LL	.
32e	.	.
32d#	16bJJ)	.
32eJJJ	.	.
32G#LLL	(8.bL	.
32e	.	.
32d#	.	.
32eJJJ	.	.
32G#LLL	.	.
32e	.	.
32A	16cc#Jk)	.
32eJJJ	.	.
32A#LLL	(8eeL	.
32e	.	.
32d#X	.	.
32eJJJ	.	.
32BLLL	16ddnJk)	.
32e	.	.
32d#	32r	.
32eJJJ	32dd'	.
32G#LLL	(32eeLLL	.
32e	32dd	.
32E	32cc#	.
32eJJJ	32bJJJ)	.
=3	=3	=3
32F#LLL	(16bLL	.
32e	.	.
32d#	16aJJ)	.
32eJJJ	.	.
8F#)	32r	.
.	(32aLLL	.
.	32g#	.
.	32aJJJ	.
8r	32bLLL>	.
.	32a	.
.	32ddn	.
.	32cc#JJJ	.
(32G#LLL	16a#LL	.
32e	.	.
32d#X	16bJJ)	.
32eJJJ)	.	.
8G#	32r	.
.	(32bLLL<	.
.	32a#	.
.	32bJJJ	.
8r	32cc#LLL	.
.	32b	.
.	32ee	.
.	32ddnJJJ)	.
=4	=4	=4
8A 8eL	(32ddLLL	.
.	32cc#	.
.	32b#	.
.	32cc#JJJ	.
8F# 8A	32ddLLL	.
.	32cc#	.
.	32b#	.
.	32cc#JJJ	.
8D 8BJ	32eeLLL	.
.	32dd	.
.	32cc#	.
.	32ddJJJ	.
8E 8G#	32cc#LLL>	.
.	32bn	.
.	32a#	.
.	32bJJJ	.
8r	32anLLL	.
.	32g#	.
.	32f##	.
.	32g#JJJ	.
8r	32f#LLL	.
.	32e	.
.	32d#	.
.	32eJJJ)	.
=5	=5	=5
32AALLL	16a' 16cc#'LK<	f
32A	.	.
32A	8a 8cc#J	.
32AJJJ	.	.
32ALLL	.	.
32A	.	.
32A	16a# (16cc#LL	p
32AJJJ	.	.
32ALLL	16b 16dd	.
32A	.	.
32A	16b# 16dd#JJ	.
32AJJJ	.	.
8A	32cc# 32eeLLL)	.
.	32an'	.
.	32bn'	.
.	32cc#'JJJ	.
8r	32ddn'LLL	.
.	32ee'	.
.	32ff#'	.
.	32gg#'JJJ	.
8r	(32aaLLL	.
.	32bb	.
.	32ccc#JJJ)	.
.	32r	.
=6	=6	=6
32EELLL	(32a 32cc#LLL	f
32E	32g#) 32bJJ	.
32E	8g# 8bJ	.
32EJJJ	.	.
32ELLL	.	.
32E	.	.
32E	16g# (16bLL<	p
32EJJJ	.	.
32ELLL	16a 16ccn	.
32E	.	.
32E	16a# 16cc#JJ	.
32EJJJ	.	.
8E	32b 32ddLLL)	.
.	32b'	.
.	32cc#'	.
.	32dd'JJJ	.
8r	32ee'LLL	.
.	32ff#'	.
.	32gg#'	.
.	32aan'JJJ	.
8r	(32bbLLL	.
.	32ccc#	.
.	32dddJJJ)	.
.	32r	.
=7	=7	=7
8r	(32bLLL	.
.	32aJ)	.
.	[>16aJJ	.
8F# 8eL	32aLLL]	.
.	(32a	.
.	32dd	.
.	32cc#JJJ	.
8G# 8eJ	32a#LLL	.
.	32b	.
.	32ee	.
.	32ddJJJ	.
8A 8e	32b#LLL	.
.	32cc#)	.
.	32aan'	.
.	32aa'JJJ	.
8r	32aa'LLL	.
.	32aa'	.
.	32aa'	.
.	32aa'JJJ	.
8D 8F# 8B	(32aaLLL	.
.	32ff#	.
.	32dd	.
.	32bnJJJ)	.
=8	=8	=8
*>A1	*>A1	*>A1
*^	*^	*
4A (4c#	4.E	8ryy	(>16.eeSSLL	.
.	.	.	32ff#JJk)	.
.	.	(8.aL	8.aL	.
8B 8d)	.	.	.	.
.	.	32cc#LL	16g#Jk	.
.	.	32bJJJ)	.	.
(8dL	4A	(8g# 8bL	4e	.
8c#J)	.	16aL)	.	.
.	.	32.r	.	.
.	.	(<64eJJkk	.	.
8r	8ryy	64f#LLLL	8ryy	.
.	.	64a	.	.
.	.	64g#	.	.
.	.	64bJJJJ	.	.
.	.	64aLLLL	.	.
.	.	64cc#	.	.
.	.	64b	.	.
.	.	64ddnJJJJ)	.	.
*v	*v	*	*	*
*	*v	*v	*
=9:|!	=9:|!	=9:|!
*>A2	*>A2	*>A2
*^	*^	*
4A (4c#	4.E	8ryy	(>16.eeSSLL	.
.	.	.	32ff#JJk)	.
.	.	(8.aL	8.aL	.
8B 8d)	.	.	.	.
.	.	32cc#LL	16g#Jk	.
.	.	32bJJJ)	.	.
(8dL	4A	(8bL	4e 4g#	.
8c#J)	.	16.aSL	.	.
.	.	32bk	.	.
8r	8ryy	16.cc#S	8ryy	.
.	.	32ddJJk)	.	.
*v	*v	*	*	*
*	*v	*v	*
=10!|:	=10!|:	=10!|:
*>B	*>B	*>B
*clefG2	*	*
(>32ALLL	(16.eeLL	p
32a	.	.
32c#	.	.
32aJJJ	64ff#LL	.
.	64eeJJJJ	.
32ALLL	16ddLL)	.
32g#	.	.
32B	(16cc#'	.
32g#JJJ	.	.
32ALLL	16b'	.
32gn	.	.
32c#	16a'JJ)	.
32gJJJ	.	.
32ALLL	(16.aLL	.
32f#	.	.
32d	.	.
32f#JJJ	32ff#Jk)	.
*clefF4	*	*
32F#LLL	8ff#J	.
32d	.	.
32A	.	.
32dJJJ	.	.
32DLLL	[8d	f
32A	.	.
32F#	.	.
32AJJJ)	.	.
=11	=11	=11
*^	*	*
(<32AALLL	4ryy	(>64dLLLL]	.
.	.	64f#	.
32F#	.	64e	.
.	.	64dJJJJ	.
32D	.	64eLLLL	.
.	.	64f#	.
32F#JJJ	.	64gn	.
.	.	64aJJJJ	.
32AALLL	.	64bLLLL	.
.	.	64cc#	.
32F#	.	64dd	.
.	.	64eeJJJJ	.
32D	.	48ff#LLL)	.
.	.	48ggn'	.
32F#JJJ	.	.	.
.	.	48aa'JJJ	.
32AALLL	8ryy	32bb'LLL	.
32F#	.	32ccc#'	.
32D	.	32.ddd'	.
32F#JJJ)	.	.	.
.	.	64ff#JJJk	.
8DL	8AAL	(16.aaLL	.
.	.	32ff#k	.
8C#J	8AAJ	16ee)	.
.	.	(16ee'	.
8r	8ryy	16ee'	.
.	.	(16ee'JJ)	.
*v	*v	*	*
=12	=12	=12
4.A 4.c# 4.e	(32ff#LLL	sfp
.	32ee	.
.	32cc#	.
.	32bJJJ	.
.	16aLL)	.
.	(16ee'	.
.	16ee'	.
.	16ee'JJ)	.
4.B 4.d 4.e	(32ff#LLL	sfp
.	32ee	.
.	32dd	.
.	32bJJJ	.
.	16g#LL)	.
.	(16ee'	.
.	16ee'	.
.	16ee'JJ)	.
=13	=13	=13
*^	*	*
4.ryy	8A 8c# 8eL	(32ff#LLL	sfp
.	.	32ee	.
.	.	32cc#	.
.	.	32aJJJ)	.
.	8G# 8B 8e	(32ff#LLL	.
.	.	32ee	.
.	.	32dd	.
.	.	32bJJJ)	.
.	8A 8c# 8eJ	(32ff#LLL	.
.	.	32ee	.
.	.	32cc#	.
.	.	32aJJJ)	.
8A (8c#L	4E	(8cc#L	>
8G# 8BJ)	.	32bLL)	]
.	.	(32e	p
.	.	32ee	.
.	.	32eJJJ	.
8r	8ryy	32dd#LLL	.
.	.	32e	.
.	.	32ddn	.
.	.	32eJJJ)	.
*v	*v	*	*
=14	=14	=14
(32ALLL	8cc#L	.
32e	.	.
32c#	.	.
32eJJJ	.	.
32ALLL	([8cc#	.
32e	.	.
32c#	.	.
32eJJJ	.	.
32ALLL	32cc#LL]	.
32e	96ddL	.
.	96cc#	.
.	96bJJJJ	.
32B	32cc#LLL	.
32eJJJ	32ddJJJ	.
32c#LLL	16ff#LL	.
32e	.	.
32A	32eeJJk)	.
32eJJJ	32r	.
32c#LLL	(16ddd#LL	.
32e	.	.
32A	32eeeJJk)	.
32eJJJ	64r	.
.	64ee'	.
32c#LLL	(32ff#LLL	.
32e	32ee	.
32A	32dd	.
32eJJJ	32cc#JJJ)	.
=15	=15	=15
32G#LLL	(16cc#LK	.
32e	.	.
32d#	8b)	.
32eJJJ	.	.
32G#LLL	.	.
32e	.	.
32d#	(8b	.
32eJJJ	.	.
32G#LLL	.	.
32e	.	.
.	32cc#qLLL>	.
.	32bq	.
.	32a#qJJJ	.
32A	32bLL	.
32eJJJ	32cc#JJJ	.
32BLLL	16eeLL	.
32e	.	.
32d#X	32ddnJJk)	.
32eJJJ	32r	.
32G#LLL	(16ccc#LL	.
32e	.	.
32B	32dddJJk)	.
32eJJJ	64r	.
.	64dd'	.
32ELLL	(32eeLLL	.
32e	32dd	.
32G#	32cc#	.
32eJJJ	32bJJJ)	.
=16	=16	=16
32F#LLL	(16bLL	.
32e	.	.
32d#	[16anJJ)	.
32eJJJ	.	.
32F#LLL	32aLLL]	.
32e	32a	.
32d#	(32ddn	.
32eJJJ	32cc#JJJ	.
32G#LLL	32a#LLL	.
32e	32b	.
32d#	32ee	.
32eJJJ	32ddJJJ	.
8A)	32b#LLL	.
.	32cc#)	.
.	32aan'	.
!	!LO:TX:b:i:t=cresc.	!
.	32aa'JJJ	.
8r	(32aa'LLL	.
.	32aa'	.
.	32aa'	.
.	32aa'JJJ)	.
8Dn 8F# 8B	(32aaLLL	.
.	32ff#	.
.	32dd	.
.	32bnJJJ)	.
=17	=17	=17
*^	*^	*
4A 4c#	4.E	(>16eeLL<	8ryy	f
.	.	32ff#qLLL	.	.
.	.	32eeq	.	.
.	.	32dd#qJJJ	.	.
.	.	32eeL	.	.
.	.	32ff#JJJ	.	.
.	.	8.aL	8.aL	.
8B 8d	.	.	.	.
.	.	16bJk)	16g#Jk	p
(4d	4.A 4.e	(8.bL	(4g#	.
.	.	16b#k	.	.
8c#)	.	8cc#J)	8a)	.
*v	*v	*	*	*
*	*v	*v	*
=18	=18	=18
.	(>32eqLLL	.
.	32aqJJJ	.
(32AALLL	([8cc#L)	f
32C#	.	.
32E	.	.
32AJJJ	.	.
32AALLL	48cc#LL]	.
.	48ee	.
32C#	.	.
.	48ddJJJ	.
32E	48cc#LLL	.
.	48dd	.
32AJJJ	.	.
.	48eeJJJ	.
32BBLLL	48ddLLL	.
.	48ff#	.
32D	.	.
.	48eeJJJ	.
32G#	48ddLLL	.
.	48ee	.
32BJJJ	.	.
.	48ff#JJJ	.
4C# 4A)	64eeLLLL	.
.	64a	.
.	64b	.
.	64cc#JJJJ	.
.	64ddLLLL	.
.	64ee	.
.	64ff#	.
.	64gg#JJJJ	.
.	64aaLLLL	.
.	64bb	.
.	64ccc#	.
.	64bbJJJJ	.
.	64aaLLLL	.
.	64gg#	.
.	64ff#	.
.	64ee#JJJJ	.
8D 8A	64ff#LLLL	.
.	64gg#	.
.	64aa	.
.	64gg#JJJJ	.
.	64bbLLLL	.
.	64aa	.
.	64gg#	.
.	64ff#JJJJ	.
=19	=19	=19
*>B1	*>B1	*>B1
*^	*	*
4.ryy	8E 8c#L	32een'LLL)	p
.	.	(32eee	.
.	.	32ccc#	.
.	.	32aaJJJ	.
.	8E 8c#	32ee'LLL)	.
.	.	(32aa	.
.	.	32ee	.
.	.	32cc#JJJ	.
.	8E 8G# 8dJ	32eeLLL	.
.	.	32dd	.
.	.	32cc#	.
.	.	32bJJJ)	.
(8dL	4A	(>(<8g# 8bL	.
8c#J)	.	48aLL))	.
.	.	48e'	.
.	.	48f#'JJJ	.
.	.	48gn'LLL	.
.	.	48g#'	.
.	.	48aJJJ	.
8r	8ryy	48a#'LLL	.
.	.	48b'	.
.	.	48b#'JJJ	.
.	.	48cc#'LLL	.
.	.	48dd'	.
.	.	(48dd#'JJJ	.
*v	*v	*	*
=20:|!	=20:|!	=20:|!
*>B2	*>B2	*>B2
*^	*	*
*	*	*^	*
4.ryy	8E 8c#L	32een'LLL<)	4.ryy	p
.	.	(32eee	.	.
.	.	32ccc#	.	.
.	.	32aaJJJ	.	.
.	8E 8c#	32ee'LLL<)	.	.
.	.	(32aa	.	.
.	.	32ee	.	.
.	.	32cc#JJJ	.	.
.	8E 8G# 8dJ	32eeLLL<	.	.
.	.	32dd	.	.
.	.	32cc#	.	.
.	.	32bJJJ)	.	.
(4d	4.A	(4g# 4b	4.e	.
8c#)	.	8a)	.	.
*v	*v	*	*	*
*	*v	*v	*
==	==	==
*-	*-	*-
!!!RDF**kern: > = above
!!!RDF**kern: < = below
!!!SMS: Alte Mozart-Ausgabe, Band 20, Breitkopf &amp; H&auml;rtel 1877-1883.
!!!ONB: Stich und Druck von Breitkopf &amp; H&auml;rtel in Leipzig
!!!ONB: Ausgegeben 1878
!!!ENC: Craig Stuart Sapp
!!!END: 2009/09/29/
!!!EED: Craig Stuart Sapp
!!!EEV: 2017/01/31/
!!!title: @{OTL}, K 331 (300i), @{OMV}
